src/raw/theater/icon_32.svg

<svg width="32" height="32" viewBox="0 0 32 32" fill="none" xmlns="http://www.w3.org/2000/svg">
<path d="M11.5396 7.69464C11.2427 7.61249 10.9308 7.60004 10.6283 7.65826C10.3258 7.71648 10.0408 7.84381 9.79559 8.0303C9.55038 8.21679 9.35156 8.45741 9.21465 8.73338C9.07774 9.00936 9.00643 9.31324 9.00629 9.62131V19.1693C8.98376 21.5205 9.84561 23.7944 11.421 25.54C13.5944 27.9169 16.3004 29.7446 19.317 30.8733C19.7616 31.0364 20.2497 31.0364 20.6943 30.8733C23.7116 29.7454 26.4182 27.9176 28.5916 25.54C30.167 23.7944 31.0288 21.5205 31.0063 19.1693V9.62131C31.0064 9.31249 30.9351 9.00784 30.7978 8.73122C30.6605 8.45461 30.461 8.21354 30.215 8.02691C29.9689 7.84028 29.683 7.71316 29.3796 7.65552C29.0762 7.59787 28.7636 7.61126 28.4663 7.69464C22.9345 9.27325 17.0714 9.27325 11.5396 7.69464V7.69464Z" stroke="#71717A" stroke-width="1.5" stroke-linecap="round" stroke-linejoin="round"/>
<path d="M4.14043 19.6707C3.88576 19.4187 3.6431 19.168 3.4151 18.92C1.83975 17.1744 0.977897 14.9006 1.00043 12.5494V3.00002C0.999993 2.69046 1.07142 2.38503 1.20908 2.10777C1.34675 1.83051 1.54689 1.58898 1.79376 1.40222C2.04063 1.21545 2.32748 1.08854 2.63173 1.03147C2.93598 0.974404 3.24933 0.988742 3.5471 1.07335C9.07662 2.65205 14.9376 2.65205 20.4671 1.07335C20.764 0.991202 21.0759 0.978751 21.3784 1.03697C21.6809 1.0952 21.9659 1.22252 22.2111 1.40901C22.4563 1.5955 22.6552 1.83612 22.7921 2.1121C22.929 2.38807 23.0003 2.69195 23.0004 3.00002V5.32397" stroke="#71717A" stroke-width="1.5" stroke-linecap="round" stroke-linejoin="round"/>
<path d="M16 21.06C16.0156 22.0992 16.4351 23.0924 17.1711 23.8284C17.9213 24.5786 18.9387 25 19.9996 25C21.0604 25 22.0778 24.5786 22.828 23.8284C23.564 23.0924 23.9835 22.0992 23.9991 21.06" stroke="#71717A" stroke-width="1.5" stroke-linecap="round" stroke-linejoin="round"/>
<path d="M13 14.9682C13.0082 14.4493 13.218 13.9534 13.5855 13.5858C13.9606 13.2107 14.4693 13 14.9997 13C15.5302 13 16.0389 13.2107 16.414 13.5858C16.7815 13.9534 16.9913 14.4493 16.9995 14.9682" stroke="#71717A" stroke-width="1.5" stroke-linecap="round" stroke-linejoin="round"/>
<path d="M23 14.962C23.0098 14.4453 23.2193 13.9519 23.5854 13.5858C23.9605 13.2107 24.4692 13 24.9996 13C25.5301 13 26.0388 13.2107 26.4139 13.5858C26.7799 13.9519 26.9895 14.4453 26.9993 14.962" stroke="#71717A" stroke-width="1.5" stroke-linecap="round" stroke-linejoin="round"/>
</svg>

<svg xmlns="http://www.w3.org/2000/svg" width="32" height="32" fill="none" viewBox="0 0 32 32">
  <path stroke="#3F3F46" stroke-linecap="round" stroke-linejoin="round" stroke-width="2"
    d="M11.54 7.695a2 2 0 0 0-2.533 1.927v9.548a9.375 9.375 0 0 0 2.414 6.37 20.375 20.375 0 0 0 7.896 5.334c.445.163.933.163 1.378 0a20.357 20.357 0 0 0 7.897-5.334 9.375 9.375 0 0 0 2.415-6.37V9.622a2 2 0 0 0-2.54-1.927 30.841 30.841 0 0 1-16.927 0v0Z" />
  <path stroke="#3F3F46" stroke-linecap="round" stroke-linejoin="round" stroke-width="2"
    d="M4.14 19.67a22.145 22.145 0 0 1-.725-.75A9.374 9.374 0 0 1 1 12.55V3a2 2 0 0 1 2.547-1.927 30.816 30.816 0 0 0 16.92 0A2 2 0 0 1 23 3v2.333M16 21.073a4 4 0 0 0 8 0M13 14.969a2 2 0 0 1 4 0M23 14.95a2 2 0 0 1 4 0" />
</svg>
